X: 36446
T: Second Home
R: reel
M: 4/4
K: Adorian
|:A2GA EGAc|BGAG EFGA|B2GB DGBd|edBA GD E/2F/2G|
A2GA EGAc|BGAG EGAB|d2BG Bdge|dBGA BAAB:|
c2ec gcec|d2BG EGDB,|A,2A,B, CB,CD|EAAG EGAB|
c2ec gcec|d2BG EGDB,|A,2A,B, CB,CD|EAA^G A2AB|
c2ec gcec|d2BG EGDB,|A,2A,B, CB,CD|EAAG EGAB|
c2ec gcec|d2BG EGAB|A2AB cBcd|eaa^g a2e=g||
|:ae e2aega|gedB G2GB|A2AB cBcd|eaag edeg|
ae e2aebe|gedB G2GB|A2AB cBcd|1 eaa^g a2e=g:|2 eaa^g a4||

